images/29620.svg

<?xml version="1.0" encoding="UTF-8"?>
<svg xmlns="http://www.w3.org/2000/svg" xmlns:xlink="http://www.w3.org/1999/xlink" width="300pt" height="300pt" viewBox="0 0 300 300" version="1.1">
<defs>
<g>
<symbol overflow="visible" id="glyph0-0">
<path style="stroke:none;" d="M 0.546875 1.9375 L 0.546875 -7.75 L 6.046875 -7.75 L 6.046875 1.9375 Z M 1.171875 1.328125 L 5.4375 1.328125 L 5.4375 -7.140625 L 1.171875 -7.140625 Z M 1.171875 1.328125 "/>
</symbol>
<symbol overflow="visible" id="glyph0-1">
<path style="stroke:none;" d="M 1.078125 -8.015625 L 5.6875 -8.015625 L 5.6875 -7.109375 L 2.171875 -7.109375 L 2.171875 -4.75 L 5.34375 -4.75 L 5.34375 -3.828125 L 2.171875 -3.828125 L 2.171875 0 L 1.078125 0 Z M 1.078125 -8.015625 "/>
</symbol>
<symbol overflow="visible" id="glyph0-2">
<path style="stroke:none;" d="M 1.078125 -8.015625 L 2.546875 -8.015625 L 6.09375 -1.3125 L 6.09375 -8.015625 L 7.15625 -8.015625 L 7.15625 0 L 5.6875 0 L 2.125 -6.703125 L 2.125 0 L 1.078125 0 Z M 1.078125 -8.015625 "/>
</symbol>
<symbol overflow="visible" id="glyph0-3">
<path style="stroke:none;" d="M 4.328125 -7.28125 C 3.546875 -7.28125 2.921875 -6.984375 2.453125 -6.390625 C 1.992188 -5.804688 1.765625 -5.007812 1.765625 -4 C 1.765625 -2.988281 1.992188 -2.1875 2.453125 -1.59375 C 2.921875 -1.007812 3.546875 -0.71875 4.328125 -0.71875 C 5.117188 -0.71875 5.742188 -1.007812 6.203125 -1.59375 C 6.660156 -2.1875 6.890625 -2.988281 6.890625 -4 C 6.890625 -5.007812 6.660156 -5.804688 6.203125 -6.390625 C 5.742188 -6.984375 5.117188 -7.28125 4.328125 -7.28125 Z M 4.328125 -8.171875 C 5.453125 -8.171875 6.351562 -7.789062 7.03125 -7.03125 C 7.707031 -6.28125 8.046875 -5.269531 8.046875 -4 C 8.046875 -2.738281 7.707031 -1.726562 7.03125 -0.96875 C 6.351562 -0.21875 5.453125 0.15625 4.328125 0.15625 C 3.203125 0.15625 2.300781 -0.21875 1.625 -0.96875 C 0.957031 -1.71875 0.625 -2.726562 0.625 -4 C 0.625 -5.269531 0.957031 -6.28125 1.625 -7.03125 C 2.300781 -7.789062 3.203125 -8.171875 4.328125 -8.171875 Z M 4.328125 -8.171875 "/>
</symbol>
</g>
</defs>
<g id="surface24537">
<rect x="0" y="0" width="300" height="300" style="fill:rgb(100%,100%,100%);fill-opacity:1;stroke:none;"/>
<path style="fill:none;stroke-width:1.2;stroke-linecap:butt;stroke-linejoin:miter;stroke:rgb(20%,80%,80%);stroke-opacity:1;stroke-miterlimit:10;" d="M 35.25 174.621094 L 48.078125 175.144531 "/>
<path style="fill:none;stroke-width:1.2;stroke-linecap:butt;stroke-linejoin:miter;stroke:rgb(0%,0%,0%);stroke-opacity:1;stroke-miterlimit:10;" d="M 48.078125 175.144531 L 60.90625 175.667969 "/>
<path style=" stroke:none;fill-rule:nonzero;fill:rgb(100%,100%,100%);fill-opacity:1;" d="M 28.25 168.121094 L 35.25 168.121094 L 35.25 181.121094 L 28.25 181.121094 Z M 28.25 168.121094 "/>
<g style="fill:rgb(20%,80%,80%);fill-opacity:1;">
  <use xlink:href="#glyph0-1" x="28.25" y="178.022461"/>
</g>
<path style="fill:none;stroke-width:1.2;stroke-linecap:butt;stroke-linejoin:miter;stroke:rgb(0%,0%,0%);stroke-opacity:1;stroke-miterlimit:10;" d="M 60.90625 175.667969 L 74.644531 153.972656 "/>
<path style="fill:none;stroke-width:1.2;stroke-linecap:butt;stroke-linejoin:miter;stroke:rgb(0%,0%,0%);stroke-opacity:1;stroke-miterlimit:10;" d="M 67.386719 176.730469 L 78.375 159.375 "/>
<path style="fill:none;stroke-width:1.2;stroke-linecap:butt;stroke-linejoin:miter;stroke:rgb(0%,0%,0%);stroke-opacity:1;stroke-miterlimit:10;" d="M 72.828125 198.414062 L 60.90625 175.667969 "/>
<path style="fill:none;stroke-width:1.2;stroke-linecap:butt;stroke-linejoin:miter;stroke:rgb(0%,0%,0%);stroke-opacity:1;stroke-miterlimit:10;" d="M 74.644531 153.972656 L 100.300781 155.023438 "/>
<path style="fill:none;stroke-width:1.2;stroke-linecap:butt;stroke-linejoin:miter;stroke:rgb(0%,0%,0%);stroke-opacity:1;stroke-miterlimit:10;" d="M 100.300781 155.023438 L 112.222656 177.765625 "/>
<path style="fill:none;stroke-width:1.2;stroke-linecap:butt;stroke-linejoin:miter;stroke:rgb(0%,0%,0%);stroke-opacity:1;stroke-miterlimit:10;" d="M 96.140625 160.101562 L 105.679688 178.296875 "/>
<path style="fill:none;stroke-width:1.2;stroke-linecap:butt;stroke-linejoin:miter;stroke:rgb(0%,0%,0%);stroke-opacity:1;stroke-miterlimit:10;" d="M 100.300781 155.023438 L 114.039062 133.328125 "/>
<path style="fill:none;stroke-width:1.2;stroke-linecap:butt;stroke-linejoin:miter;stroke:rgb(0%,0%,0%);stroke-opacity:1;stroke-miterlimit:10;" d="M 112.222656 177.765625 L 98.484375 199.460938 "/>
<path style="fill:none;stroke-width:1.2;stroke-linecap:butt;stroke-linejoin:miter;stroke:rgb(0%,0%,0%);stroke-opacity:1;stroke-miterlimit:10;" d="M 98.484375 199.460938 L 72.828125 198.414062 "/>
<path style="fill:none;stroke-width:1.2;stroke-linecap:butt;stroke-linejoin:miter;stroke:rgb(0%,0%,0%);stroke-opacity:1;stroke-miterlimit:10;" d="M 96.164062 193.320312 L 75.640625 192.480469 "/>
<path style="fill:none;stroke-width:1.2;stroke-linecap:butt;stroke-linejoin:miter;stroke:rgb(0%,0%,0%);stroke-opacity:1;stroke-miterlimit:10;" d="M 114.039062 133.328125 L 109.300781 121.394531 "/>
<path style="fill:none;stroke-width:1.2;stroke-linecap:butt;stroke-linejoin:miter;stroke:rgb(0%,0%,100%);stroke-opacity:1;stroke-miterlimit:10;" d="M 109.300781 121.394531 L 104.5625 109.460938 "/>
<path style="fill:none;stroke-width:1.2;stroke-linecap:butt;stroke-linejoin:miter;stroke:rgb(0%,0%,0%);stroke-opacity:1;stroke-miterlimit:10;" d="M 139.664062 131.6875 L 114.039062 133.328125 "/>
<path style="fill:none;stroke-width:1.2;stroke-linecap:butt;stroke-linejoin:miter;stroke:rgb(0%,0%,0%);stroke-opacity:1;stroke-miterlimit:10;" d="M 136.714844 125.824219 L 116.214844 127.132812 "/>
<path style="fill:none;stroke-width:1.2;stroke-linecap:butt;stroke-linejoin:miter;stroke:rgb(0%,0%,100%);stroke-opacity:1;stroke-miterlimit:10;" d="M 104.5625 109.460938 L 114.445312 101.269531 "/>
<path style="fill:none;stroke-width:1.2;stroke-linecap:butt;stroke-linejoin:miter;stroke:rgb(0%,0%,0%);stroke-opacity:1;stroke-miterlimit:10;" d="M 114.445312 101.269531 L 124.332031 93.074219 "/>
<path style="fill:none;stroke-width:1.2;stroke-linecap:butt;stroke-linejoin:miter;stroke:rgb(0%,0%,100%);stroke-opacity:1;stroke-miterlimit:10;" d="M 110.394531 112.476562 L 118.300781 105.917969 "/>
<path style="fill:none;stroke-width:1.2;stroke-linecap:butt;stroke-linejoin:miter;stroke:rgb(0%,0%,0%);stroke-opacity:1;stroke-miterlimit:10;" d="M 118.300781 105.917969 L 126.210938 99.363281 "/>
<path style=" stroke:none;fill-rule:nonzero;fill:rgb(100%,100%,100%);fill-opacity:1;" d="M 100.5625 102.960938 L 108.5625 102.960938 L 108.5625 115.960938 L 100.5625 115.960938 Z M 100.5625 102.960938 "/>
<g style="fill:rgb(0%,0%,100%);fill-opacity:1;">
  <use xlink:href="#glyph0-2" x="100.5625" y="112.862305"/>
</g>
<path style="fill:none;stroke-width:1.2;stroke-linecap:butt;stroke-linejoin:miter;stroke:rgb(0%,0%,0%);stroke-opacity:1;stroke-miterlimit:10;" d="M 124.332031 93.074219 L 135.179688 99.941406 "/>
<path style="fill:none;stroke-width:1.2;stroke-linecap:butt;stroke-linejoin:miter;stroke:rgb(100%,0%,0%);stroke-opacity:1;stroke-miterlimit:10;" d="M 135.179688 99.941406 L 146.027344 106.8125 "/>
<path style="fill:none;stroke-width:1.2;stroke-linecap:butt;stroke-linejoin:miter;stroke:rgb(100%,0%,0%);stroke-opacity:1;stroke-miterlimit:10;" d="M 146.027344 106.8125 L 142.84375 119.25 "/>
<path style="fill:none;stroke-width:1.2;stroke-linecap:butt;stroke-linejoin:miter;stroke:rgb(0%,0%,0%);stroke-opacity:1;stroke-miterlimit:10;" d="M 142.84375 119.25 L 139.664062 131.6875 "/>
<path style=" stroke:none;fill-rule:nonzero;fill:rgb(100%,100%,100%);fill-opacity:1;" d="M 142.027344 100.3125 L 151.027344 100.3125 L 151.027344 113.3125 L 142.027344 113.3125 Z M 142.027344 100.3125 "/>
<g style="fill:rgb(100%,0%,0%);fill-opacity:1;">
  <use xlink:href="#glyph0-3" x="142.027344" y="110.213867"/>
</g>
<path style="fill:none;stroke-width:1.2;stroke-linecap:butt;stroke-linejoin:miter;stroke:rgb(0%,0%,0%);stroke-opacity:1;stroke-miterlimit:10;" d="M 139.664062 131.6875 L 156.054688 151.457031 "/>
<path style="fill:none;stroke-width:1.2;stroke-linecap:butt;stroke-linejoin:miter;stroke:rgb(0%,0%,0%);stroke-opacity:1;stroke-miterlimit:10;" d="M 156.054688 151.457031 L 147.128906 175.535156 "/>
<path style="fill:none;stroke-width:1.2;stroke-linecap:butt;stroke-linejoin:miter;stroke:rgb(0%,0%,0%);stroke-opacity:1;stroke-miterlimit:10;" d="M 156.054688 151.457031 L 181.367188 147.148438 "/>
<path style="fill:none;stroke-width:1.2;stroke-linecap:butt;stroke-linejoin:miter;stroke:rgb(0%,0%,0%);stroke-opacity:1;stroke-miterlimit:10;" d="M 159.597656 156.984375 L 179.851562 153.539062 "/>
<path style="fill:none;stroke-width:1.2;stroke-linecap:butt;stroke-linejoin:miter;stroke:rgb(0%,0%,0%);stroke-opacity:1;stroke-miterlimit:10;" d="M 147.128906 175.535156 L 163.515625 195.304688 "/>
<path style="fill:none;stroke-width:1.2;stroke-linecap:butt;stroke-linejoin:miter;stroke:rgb(0%,0%,0%);stroke-opacity:1;stroke-miterlimit:10;" d="M 153.417969 173.65625 L 166.527344 189.472656 "/>
<path style="fill:none;stroke-width:1.2;stroke-linecap:butt;stroke-linejoin:miter;stroke:rgb(0%,0%,0%);stroke-opacity:1;stroke-miterlimit:10;" d="M 163.515625 195.304688 L 188.828125 190.996094 "/>
<path style="fill:none;stroke-width:1.2;stroke-linecap:butt;stroke-linejoin:miter;stroke:rgb(0%,0%,0%);stroke-opacity:1;stroke-miterlimit:10;" d="M 188.828125 190.996094 L 193.292969 178.957031 "/>
<path style="fill:none;stroke-width:1.2;stroke-linecap:butt;stroke-linejoin:miter;stroke:rgb(0%,0%,100%);stroke-opacity:1;stroke-miterlimit:10;" d="M 193.292969 178.957031 L 197.757812 166.917969 "/>
<path style="fill:none;stroke-width:1.2;stroke-linecap:butt;stroke-linejoin:miter;stroke:rgb(0%,0%,100%);stroke-opacity:1;stroke-miterlimit:10;" d="M 208.96875 206.925781 L 198.898438 198.960938 "/>
<path style="fill:none;stroke-width:1.2;stroke-linecap:butt;stroke-linejoin:miter;stroke:rgb(0%,0%,0%);stroke-opacity:1;stroke-miterlimit:10;" d="M 198.898438 198.960938 L 188.828125 190.996094 "/>
<path style="fill:none;stroke-width:1.2;stroke-linecap:butt;stroke-linejoin:miter;stroke:rgb(0%,0%,100%);stroke-opacity:1;stroke-miterlimit:10;" d="M 210.703125 200.59375 L 202.648438 194.222656 "/>
<path style="fill:none;stroke-width:1.2;stroke-linecap:butt;stroke-linejoin:miter;stroke:rgb(0%,0%,0%);stroke-opacity:1;stroke-miterlimit:10;" d="M 202.648438 194.222656 L 194.59375 187.851562 "/>
<path style="fill:none;stroke-width:1.2;stroke-linecap:butt;stroke-linejoin:miter;stroke:rgb(0%,0%,100%);stroke-opacity:1;stroke-miterlimit:10;" d="M 197.757812 166.917969 L 189.5625 157.035156 "/>
<path style="fill:none;stroke-width:1.2;stroke-linecap:butt;stroke-linejoin:miter;stroke:rgb(0%,0%,0%);stroke-opacity:1;stroke-miterlimit:10;" d="M 189.5625 157.035156 L 181.367188 147.148438 "/>
<path style="fill:none;stroke-width:1.2;stroke-linecap:butt;stroke-linejoin:miter;stroke:rgb(0%,0%,100%);stroke-opacity:1;stroke-miterlimit:10;" d="M 197.757812 166.917969 L 210.585938 167.445312 "/>
<path style="fill:none;stroke-width:1.2;stroke-linecap:butt;stroke-linejoin:miter;stroke:rgb(0%,0%,0%);stroke-opacity:1;stroke-miterlimit:10;" d="M 210.585938 167.445312 L 223.414062 167.96875 "/>
<path style=" stroke:none;fill-rule:nonzero;fill:rgb(100%,100%,100%);fill-opacity:1;" d="M 193.757812 160.417969 L 201.757812 160.417969 L 201.757812 173.417969 L 193.757812 173.417969 Z M 193.757812 160.417969 "/>
<g style="fill:rgb(0%,0%,100%);fill-opacity:1;">
  <use xlink:href="#glyph0-2" x="193.757812" y="170.319336"/>
</g>
<path style="fill:none;stroke-width:1.2;stroke-linecap:butt;stroke-linejoin:miter;stroke:rgb(0%,0%,0%);stroke-opacity:1;stroke-miterlimit:10;" d="M 223.414062 167.96875 L 226.878906 180.332031 "/>
<path style="fill:none;stroke-width:1.2;stroke-linecap:butt;stroke-linejoin:miter;stroke:rgb(0%,0%,100%);stroke-opacity:1;stroke-miterlimit:10;" d="M 226.878906 180.332031 L 230.34375 192.695312 "/>
<path style="fill:none;stroke-width:1.2;stroke-linecap:butt;stroke-linejoin:miter;stroke:rgb(0%,0%,0%);stroke-opacity:1;stroke-miterlimit:10;" d="M 218.289062 172.070312 L 221.0625 181.960938 "/>
<path style="fill:none;stroke-width:1.2;stroke-linecap:butt;stroke-linejoin:miter;stroke:rgb(0%,0%,100%);stroke-opacity:1;stroke-miterlimit:10;" d="M 221.0625 181.960938 L 223.832031 191.851562 "/>
<path style="fill:none;stroke-width:1.2;stroke-linecap:butt;stroke-linejoin:miter;stroke:rgb(0%,0%,0%);stroke-opacity:1;stroke-miterlimit:10;" d="M 223.414062 167.96875 L 239.34375 147.828125 "/>
<path style="fill:none;stroke-width:1.2;stroke-linecap:butt;stroke-linejoin:miter;stroke:rgb(0%,0%,100%);stroke-opacity:1;stroke-miterlimit:10;" d="M 230.34375 192.695312 L 208.96875 206.925781 "/>
<path style=" stroke:none;fill-rule:nonzero;fill:rgb(100%,100%,100%);fill-opacity:1;" d="M 226.34375 186.195312 L 234.34375 186.195312 L 234.34375 199.195312 L 226.34375 199.195312 Z M 226.34375 186.195312 "/>
<g style="fill:rgb(0%,0%,100%);fill-opacity:1;">
  <use xlink:href="#glyph0-2" x="226.34375" y="196.09668"/>
</g>
<path style=" stroke:none;fill-rule:nonzero;fill:rgb(100%,100%,100%);fill-opacity:1;" d="M 204.96875 200.425781 L 212.96875 200.425781 L 212.96875 213.425781 L 204.96875 213.425781 Z M 204.96875 200.425781 "/>
<g style="fill:rgb(0%,0%,100%);fill-opacity:1;">
  <use xlink:href="#glyph0-2" x="204.96875" y="210.327148"/>
</g>
<path style="fill:none;stroke-width:1.2;stroke-linecap:butt;stroke-linejoin:miter;stroke:rgb(0%,0%,0%);stroke-opacity:1;stroke-miterlimit:10;" d="M 239.34375 147.828125 L 264.75 151.554688 "/>
<path style="fill:none;stroke-width:1.2;stroke-linecap:butt;stroke-linejoin:miter;stroke:rgb(0%,0%,0%);stroke-opacity:1;stroke-miterlimit:10;" d="M 239.34375 147.828125 L 229.867188 123.960938 "/>
</g>
</svg>

<svg xmlns="http://www.w3.org/2000/svg" xmlns:xlink="http://www.w3.org/1999/xlink" width="300pt" height="300pt" viewBox="0 0 300 300"><defs><symbol overflow="visible"><path d="M.547 1.938V-7.75h5.5v9.688zm.625-.61h4.266v-8.47H1.171zm0 0"/></symbol><symbol overflow="visible" id="a"><path d="M1.078-8.016h4.61v.907H2.171v2.36h3.172v.922H2.172V0H1.078zm0 0"/></symbol><symbol overflow="visible" id="b"><path d="M1.078-8.016h1.47l3.546 6.704v-6.704h1.062V0H5.688L2.124-6.703V0H1.078zm0 0"/></symbol><symbol overflow="visible" id="c"><path d="M4.328-7.28c-.78 0-1.406.296-1.875.89-.46.585-.687 1.382-.687 2.39 0 1.012.226 1.813.687 2.406.47.586 1.094.875 1.875.875.79 0 1.414-.288 1.875-.874.457-.593.688-1.394.688-2.406 0-1.008-.23-1.805-.687-2.39-.46-.594-1.086-.89-1.875-.89zm0-.892c1.125 0 2.024.383 2.703 1.14C7.708-6.28 8.048-5.27 8.048-4c0 1.262-.34 2.273-1.016 3.03C6.353-.22 5.454.157 4.33.157S2.3-.22 1.625-.97c-.668-.75-1-1.757-1-3.03 0-1.27.332-2.28 1-3.03.676-.76 1.578-1.142 2.703-1.142zm0 0"/></symbol></defs><g><path fill="#fff" d="M0 0h300v300H0z"/><path d="M35.25 174.62l12.828.525" stroke-width="1.2" stroke="#3cc" stroke-miterlimit="10" fill="none"/><path d="M48.078 175.145l12.828.523" stroke-width="1.2" stroke="#000" stroke-miterlimit="10" fill="none"/><path d="M28.25 168.12h7v13h-7zm0 0" fill="#fff"/><use xlink:href="#a" x="28.25" y="178.022" fill="#3cc"/><path d="M60.906 175.668l13.74-21.695M67.387 176.73l10.988-17.355M72.828 198.414l-11.922-22.746M74.645 153.973l25.656 1.05M100.3 155.023l11.923 22.743M96.14 160.102l9.54 18.195M100.3 155.023l13.74-21.695M112.223 177.766l-13.74 21.695M98.484 199.46l-25.656-1.046M96.164 193.32l-20.523-.84M114.04 133.328l-4.74-11.933" stroke-width="1.2" stroke="#000" stroke-miterlimit="10" fill="none"/><path d="M109.3 121.395l-4.737-11.934" stroke-width="1.2" stroke="#00f" stroke-miterlimit="10" fill="none"/><path d="M139.664 131.688l-25.625 1.64M136.715 125.824l-20.5 1.31" stroke-width="1.2" stroke="#000" stroke-miterlimit="10" fill="none"/><path d="M104.563 109.46l9.882-8.19" stroke-width="1.2" stroke="#00f" stroke-miterlimit="10" fill="none"/><path d="M114.445 101.27l9.887-8.196" stroke-width="1.2" stroke="#000" stroke-miterlimit="10" fill="none"/><path d="M110.395 112.477l7.906-6.56" stroke-width="1.2" stroke="#00f" stroke-miterlimit="10" fill="none"/><path d="M118.3 105.918l7.91-6.555" stroke-width="1.2" stroke="#000" stroke-miterlimit="10" fill="none"/><path d="M100.563 102.96h8v13h-8zm0 0" fill="#fff"/><use xlink:href="#b" x="100.563" y="112.862" fill="#00f"/><path d="M124.332 93.074l10.848 6.867" stroke-width="1.2" stroke="#000" stroke-miterlimit="10" fill="none"/><path d="M135.18 99.94l10.847 6.873M146.027 106.813l-3.183 12.437" stroke-width="1.2" stroke="#f00" stroke-miterlimit="10" fill="none"/><path d="M142.844 119.25l-3.18 12.438" stroke-width="1.2" stroke="#000" stroke-miterlimit="10" fill="none"/><path d="M142.027 100.313h9v13h-9zm0 0" fill="#fff"/><use xlink:href="#c" x="142.027" y="110.214" fill="#f00"/><path d="M139.664 131.688l16.39 19.77M156.055 151.457l-8.926 24.078M156.055 151.457l25.312-4.31M159.598 156.984l20.254-3.445M147.13 175.535l16.386 19.77M153.418 173.656l13.11 15.817M163.516 195.305l25.312-4.31M188.828 190.996l4.465-12.04" stroke-width="1.2" stroke="#000" stroke-miterlimit="10" fill="none"/><path d="M193.293 178.957l4.465-12.04M208.97 206.926l-10.072-7.965" stroke-width="1.2" stroke="#00f" stroke-miterlimit="10" fill="none"/><path d="M198.898 198.96l-10.07-7.964" stroke-width="1.2" stroke="#000" stroke-miterlimit="10" fill="none"/><path d="M210.703 200.594l-8.055-6.37" stroke-width="1.2" stroke="#00f" stroke-miterlimit="10" fill="none"/><path d="M202.648 194.223l-8.054-6.37" stroke-width="1.2" stroke="#000" stroke-miterlimit="10" fill="none"/><path d="M197.758 166.918l-8.196-9.883" stroke-width="1.2" stroke="#00f" stroke-miterlimit="10" fill="none"/><path d="M189.563 157.035l-8.196-9.887" stroke-width="1.2" stroke="#000" stroke-miterlimit="10" fill="none"/><path d="M197.758 166.918l12.828.527" stroke-width="1.2" stroke="#00f" stroke-miterlimit="10" fill="none"/><path d="M210.586 167.445l12.828.524" stroke-width="1.2" stroke="#000" stroke-miterlimit="10" fill="none"/><path d="M193.758 160.418h8v13h-8zm0 0" fill="#fff"/><use xlink:href="#b" x="193.758" y="170.319" fill="#00f"/><path d="M223.414 167.97l3.465 12.362" stroke-width="1.2" stroke="#000" stroke-miterlimit="10" fill="none"/><path d="M226.88 180.332l3.464 12.363" stroke-width="1.2" stroke="#00f" stroke-miterlimit="10" fill="none"/><path d="M218.29 172.07l2.773 9.89" stroke-width="1.2" stroke="#000" stroke-miterlimit="10" fill="none"/><path d="M221.063 181.96l2.77 9.892" stroke-width="1.2" stroke="#00f" stroke-miterlimit="10" fill="none"/><path d="M223.414 167.97l15.93-20.142" stroke-width="1.2" stroke="#000" stroke-miterlimit="10" fill="none"/><path d="M230.344 192.695l-21.375 14.23" stroke-width="1.2" stroke="#00f" stroke-miterlimit="10" fill="none"/><path d="M226.344 186.195h8v13h-8zm0 0" fill="#fff"/><use xlink:href="#b" x="226.344" y="196.097" fill="#00f"/><path d="M204.97 200.426h8v13h-8zm0 0" fill="#fff"/><use xlink:href="#b" x="204.969" y="210.327" fill="#00f"/><path d="M239.344 147.828l25.406 3.727M239.344 147.828l-9.477-23.867" stroke-width="1.2" stroke="#000" stroke-miterlimit="10" fill="none"/></g></svg>
